assets/svg/icon_wallet_protect_fill.svg

<svg width="36" height="36" viewBox="0 0 36 36" fill="none" xmlns="http://www.w3.org/2000/svg">
<path fill-rule="evenodd" clip-rule="evenodd" d="M5.5453 7.96949C5 8.7494 5 11.0677 5 15.7042V17.9875C5 26.1627 11.1229 30.13 14.9646 31.8145C16.0067 32.2715 16.5277 32.5 18 32.5C19.4723 32.5 19.9933 32.2715 21.0354 31.8146C24.8771 30.13 31 26.1627 31 17.9875V15.7042C31 11.0677 31 8.7494 30.4547 7.96949C29.9094 7.18958 27.738 6.44344 23.3951 4.95115L22.5677 4.66684C20.3039 3.88895 19.172 3.5 18 3.5C16.828 3.5 15.6961 3.88895 13.4323 4.66684L12.6049 4.95115C8.26202 6.44344 6.0906 7.18958 5.5453 7.96949ZM20.5 22.875C20.5 23.7725 19.7538 24.5 18.8333 24.5H17.1667C16.2462 24.5 15.5 23.7725 15.5 22.875V20.5978C14.0055 19.7549 13 18.1794 13 16.375C13 13.6826 15.2386 11.5 18 11.5C20.7614 11.5 23 13.6826 23 16.375C23 18.1794 21.9945 19.7549 20.5 20.5978V22.875Z" fill="white"/>
</svg>

<svg xmlns="http://www.w3.org/2000/svg" width="36" height="36" fill="none"><path fill="#fff" fill-rule="evenodd" d="M5.545 7.97C5 8.75 5 11.067 5 15.703v2.284c0 8.175 6.123 12.142 9.965 13.827 1.042.457 1.563.685 3.035.685s1.993-.228 3.035-.685C24.877 30.13 31 26.163 31 17.988v-2.284c0-4.636 0-6.955-.545-7.735-.546-.78-2.717-1.526-7.06-3.018l-.827-.284C20.304 3.889 19.172 3.5 18 3.5s-2.304.389-4.568 1.167l-.827.284C8.262 6.443 6.09 7.19 5.545 7.97M20.5 22.874c0 .898-.746 1.625-1.667 1.625h-1.666c-.92 0-1.667-.727-1.667-1.625v-2.277c-1.495-.843-2.5-2.419-2.5-4.223 0-2.692 2.239-4.875 5-4.875s5 2.183 5 4.875c0 1.804-1.006 3.38-2.5 4.223z" clip-rule="evenodd"/></svg>
